Numix/256x256/categories/applications-geology.svg

<?xml version="1.0" encoding="UTF-8" standalone="no"?>
<svg
   xmlns:dc="http://purl.org/dc/elements/1.1/"
   xmlns:cc="http://creativecommons.org/ns#"
   xmlns:rdf="http://www.w3.org/1999/02/22-rdf-syntax-ns#"
   xmlns:svg="http://www.w3.org/2000/svg"
   xmlns="http://www.w3.org/2000/svg"
   xmlns:sodipodi="http://sodipodi.sourceforge.net/DTD/sodipodi-0.dtd"
   xmlns:inkscape="http://www.inkscape.org/namespaces/inkscape"
   width="256"
   height="256"
   viewBox="0 0 256 256"
   id="svg2"
   version="1.1"
   inkscape:version="0.91 r"
   sodipodi:docname="applications-geology.svg">
  <metadata
     id="metadata22">
    <rdf:RDF>
      <cc:Work
         rdf:about="">
        <dc:format>image/svg+xml</dc:format>
        <dc:type
           rdf:resource="http://purl.org/dc/dcmitype/StillImage" />
        <dc:title></dc:title>
      </cc:Work>
    </rdf:RDF>
  </metadata>
  <defs
     id="defs20" />
  <sodipodi:namedview
     pagecolor="#ffffff"
     bordercolor="#666666"
     borderopacity="1"
     objecttolerance="10"
     gridtolerance="10"
     guidetolerance="10"
     inkscape:pageopacity="0"
     inkscape:pageshadow="2"
     inkscape:window-width="1920"
     inkscape:window-height="1056"
     id="namedview18"
     showgrid="true"
     inkscape:zoom="1.84375"
     inkscape:cx="-19.962868"
     inkscape:cy="58.944599"
     inkscape:window-x="0"
     inkscape:window-y="24"
     inkscape:window-maximized="1"
     inkscape:current-layer="svg2">
    <inkscape:grid
       type="xygrid"
       id="grid4150" />
  </sodipodi:namedview>
  <g
     id="g6"
     style="fill:#a47854;fill-rule:evenodd;stroke:#a47854;stroke-width:1.0004977;stroke-linejoin:round"
     transform="matrix(8.3973052,0,0,8.4058364,-5.061346,-5.09792)">
    <path
       inkscape:connector-curvature="0"
       id="path8"
       transform="scale(0.1237,0.1237)"
       d="m 30.725798,148.1975 c 38.27304,-0.53683 53.778042,-5.24201 65.525213,-8.87353 11.778749,-3.6631 29.210039,-11.49454 29.210039,-11.49454 l 44.02031,89.84059 -138.755562,0 z"
       style="stroke-width:5.42069674" />
    <path
       inkscape:connector-curvature="0"
       id="path10"
       transform="scale(0.1237,0.1237)"
       d="m 157.29209,182.08114 c 0,0 -19.76809,10.95771 -25.45221,13.73661 -7.86302,3.82099 -21.41016,14.11556 -45.157129,21.47333 l -55.641169,0 0,-43.894 c 32.146827,-1.01051 55.293806,-1.98944 69.693568,-8.02092 14.36817,-6.03148 41.46245,-20.08387 41.46245,-20.08387 z"
       style="stroke-width:6.12604761" />
    <path
       inkscape:connector-curvature="0"
       id="path12"
       transform="scale(0.1237,0.1237)"
       d="m 132.53461,142.1976 c 20.84175,-20.90491 14.7787,-27.15743 35.93624,-28.98898 21.15753,-1.79997 56.80957,14.08397 56.80957,14.08397 l 0,90.31427 -55.79906,0 z"
       style="stroke-width:5.42069674" />
    <path
       inkscape:connector-curvature="0"
       id="path14"
       transform="scale(0.1237,0.1237)"
       d="m 224.61727,184.10216 c 0,0 -4.98939,-2.62101 -11.46297,-5.36833 -6.37884,-2.65259 -11.49454,-3.97888 -23.08382,-0.66315 -7.83144,2.24207 -14.36818,7.23146 -27.72585,17.2734 l -17.1155,-43.04138 c 13.29452,-11.96822 23.77855,-20.39966 37.13622,-21.41017 13.38925,-1.01051 24.41011,1.35787 31.13632,4.67361 6.69462,3.34731 10.45245,5.68411 10.45245,5.68411 z"
       style="stroke-width:6.12604761" />
  </g>
  <path
     inkscape:connector-curvature="0"
     id="path16"
     d="m 30.467512,28.00004 195.064968,0 c 1.34892,0 2.46752,1.1186 2.46752,2.46752 l 0,195.06488 c 0,1.34892 -1.1186,2.46752 -2.46752,2.46752 l -195.064968,0 C 29.118606,227.99996 28,226.88136 28,225.53244 L 28,30.46756 c 0,-1.34892 1.118606,-2.46752 2.467512,-2.46752 z"
     style="fill:none;stroke:#a47854;stroke-width:8;stroke-linecap:round;stroke-miterlimit:4;stroke-dasharray:none" />
</svg>

<svg width="256" xmlns="http://www.w3.org/2000/svg" height="256" viewBox="0 0 256 256" xmlns:xlink="http://www.w3.org/1999/xlink">
<g style="stroke:#a47854">
<g style="fill:#a47854;fill-rule:evenodd;stroke-linejoin:round">
<path style="stroke-width:5.418" d="M 30.710009 148.185662 C 68.998838 147.656724 84.499893 142.947592 96.262852 139.316075 C 108.025812 135.656926 125.472887 127.817584 125.472887 127.817584 L 169.473461 217.658176 L 30.710009 217.658176 Z " transform="scale(.9896)"/>
<path style="stroke-width:6.123" d="M 157.28814 182.077197 C 157.28814 182.077197 137.527947 193.050696 131.843832 195.817755 C 123.972912 199.630848 110.421824 209.921464 86.682751 217.291077 L 31.053424 217.291077 L 31.053424 173.393132 C 63.184462 172.394465 86.343283 171.395798 100.735146 165.368267 C 115.103325 159.340737 142.209447 145.288343 142.209447 145.288343 Z " transform="scale(.9896)"/>
<path style="stroke-width:5.418" d="M 132.526715 142.185763 C 153.36847 121.288747 147.317256 115.024379 168.474794 113.20862 C 189.632333 111.392861 225.288311 127.288646 225.288311 127.288646 L 225.288311 217.606861 L 169.473461 217.606861 Z " transform="scale(.9896)"/>
<path style="stroke-width:6.123" d="M 224.605428 184.10611 C 224.605428 184.10611 219.631827 181.473259 213.158252 178.737779 C 206.791254 176.077298 201.659762 174.762846 190.078378 178.07858 C 182.235089 180.3167 175.710199 185.2903 162.340687 195.344078 L 145.237028 152.31454 C 158.527593 140.342373 168.999785 131.895147 182.369297 130.89648 C 195.762492 129.893865 206.791254 132.238562 213.501667 135.57798 C 220.18445 138.921344 223.946228 141.262095 223.946228 141.262095 Z " transform="scale(.9896)"/>
</g>
<path style="fill:none;stroke-linecap:round;stroke-width:8.073" d="M 34.392842 32.024461 L 221.605478 32.024461 C 222.91993 32.024461 223.973859 33.07839 223.973859 34.392842 L 223.973859 221.605478 C 223.973859 222.91993 222.91993 223.973859 221.605478 223.973859 L 34.392842 223.973859 C 33.07839 223.973859 32.024461 222.91993 32.024461 221.605478 L 32.024461 34.392842 C 32.024461 33.07839 33.07839 32.024461 34.392842 32.024461 Z " transform="scale(.9896)"/>
</g>
</svg>
